{ "compressionlevel":-1,
 "height":10,
 "infinite":false,
 "layers":[
        {
         "data":[1, 1, 1, 1, 1, 1, 1, 1, 1, 1, 1, 1, 1, 1, 1,
            1, 2, 2, 2, 2, 2, 2, 1, 1, 2, 2, 2, 2, 2, 1,
            1, 2, 2, 1, 1, 2, 2, 1, 1, 2, 2, 2, 2, 2, 1,
            1, 2, 2, 1, 2, 2, 2, 1, 1, 2, 2, 1, 2, 2, 1,
            1, 2, 2, 2, 2, 2, 2, 1, 1, 2, 2, 1, 2, 2, 1,
            1, 2, 2, 1, 1, 1, 1, 1, 1, 2, 2, 1, 2, 2, 1,
            1, 2, 2, 1, 1, 1, 1, 1, 1, 2, 2, 1, 2, 2, 1,
            1, 2, 2, 2, 2, 2, 2, 2, 2, 2, 2, 1, 2, 2, 1,
            1, 1, 2, 2, 2, 2, 1, 1, 1, 1, 2, 1, 2, 2, 1,
            1, 1, 1, 1, 1, 1, 1, 1, 1, 1, 1, 1, 1, 1, 1],
         "height":10,
         "id":1,
         "name":"Map",
         "opacity":1,
         "type":"tilelayer",
         "visible":true,
         "width":15,
         "x":0,
         "y":0
        }, 
        {
         "data":[0, 0, 0, 0, 0, 0, 0, 0, 0, 0, 0, 0, 0, 0, 0,
            0, 3, 0, 0, 0, 0, 0, 0, 0, 0, 0, 0, 0, 0, 0,
            0, 0, 0, 0, 0, 0, 0, 0, 0, 0, 0, 0, 0, 0, 0,
            0, 0, 0, 0, 0, 0, 0, 0, 0, 0, 0, 0, 0, 0, 0,
            0, 0, 0, 0, 0, 0, 0, 0, 0, 0, 0, 0, 0, 0, 0,
            0, 0, 0, 0, 0, 0, 0, 0, 0, 0, 0, 0, 0, 0, 0,
            0, 0, 0, 0, 0, 0, 0, 0, 0, 0, 0, 0, 0, 0, 0,
            0, 0, 0, 0, 0, 0, 0, 0, 0, 0, 0, 0, 0, 0, 0,
            0, 0, 0, 0, 0, 0, 0, 0, 0, 0, 0, 0, 0, 0, 0,
            0, 0, 0, 0, 0, 0, 0, 0, 0, 0, 0, 0, 0, 0, 0],
         "height":10,
         "id":3,
         "name":"Entities",
         "opacity":1,
         "type":"tilelayer",
         "visible":true,
         "width":15,
         "x":0,
         "y":0
        }],
 "nextlayerid":4,
 "nextobjectid":1,
 "orientation":"orthogonal",
 "renderorder":"right-down",
 "tiledversion":"1.12.2",
 "tileheight":32,
 "tilesets":[
        {
         "firstgid":1,
         "source":"..\/..\/..\/..\/ProjectTemplates\/Tilemaps\/wall.tsx"
        }, 
        {
         "firstgid":2,
         "source":"..\/..\/..\/..\/Users\/Rbnln\/Tiled\/ground.tsx"
        }, 
        {
         "firstgid":3,
         "source":"..\/..\/..\/..\/Users\/Rbnln\/Tiled\/player.tsx"
        }],
 "tilewidth":32,
 "type":"map",
 "version":"1.10",
 "width":15
}